X:667
T: Man Of Aran
Z: Piano Box Version by Martin Fleischmann
H: Created 2015-03-30 /  Last Modified 2015-05-25
R: reel
M: 4/4
L: 1/8
K: Bmin
A|:FBfe dBBB|Aced cAAG|FBfe dB B2|cedc dBBA|
FBfe dBBB|Aced cAAe| f3e dB B2|cedc dB B2:|
c|df f2 df f2|cege ce ce|df f2 dfed|cedc dBBc|
df f2 df f2|cege gece|dfeg fzBc| dffe fedc|
df f2 df f2|cege ce de|df f2 dfed|cedc dBBc|
df f2 afdf|cee2 gece|dfeg fzBc| dffe fedc|

